X: 262
T: Andrea's Hornpipe
C: BB 12/07
N: 012251
L: 1/8
M: 4/4
R: hornpipe
Q: 1/4=160
K: A
E |"A"A2 (3cBA eAcB |"A"ABcd "F#m"efec |"A"A2 (3cBA eAcA |"G"B=GEF GABG |
"A"A2 (3cBA eAcB | "A"ABcd "E" efge | "A" a2 ed cdec| "E" BecB "A"A3 :|
e |"A" aece "Bm" fdBd |"A" ecAc "E7" dBGE |"A" Ac "E"Bd "A"ce "D"df|"G" =gedg e3e|
"A" aece "Bm" fdBd | "A" ecAc "E7" dBGE |"A" Acea "E7" bged | "A"ce"E"dB "A"A3 :|
%%%%%%%%%%%%%%%%%%%%%%%%%%%%%%%
